korla-light/actions/symbolic/xapp-prefs-toolbar-symbolic.svg

<svg xmlns="http://www.w3.org/2000/svg" width="16" height="16" version="1.1">
 <path style="fill:#444444" d="M 0.6,6 H 3.4 C 3.7324,6 4,6.2676 4,6.6 V 9.4 C 4,9.7324 3.7324,10 3.4,10 H 0.6 C 0.2676,10 0,9.7324 0,9.4 V 6.6 C 0,6.2676 0.2676,6 0.6,6 Z"/>
 <path style="fill:#444444" d="M 6.6,6 H 9.4 C 9.7324,6 10,6.2676 10,6.6 V 9.4 C 10,9.7324 9.7324,10 9.4,10 H 6.6 C 6.2676,10 6,9.7324 6,9.4 V 6.6 C 6,6.2676 6.2676,6 6.6,6 Z"/>
 <path style="fill:#444444" d="M 12.6,6 H 15.4 C 15.732,6 16,6.2676 16,6.6 V 9.4 C 16,9.7324 15.732,10 15.4,10 H 12.6 C 12.268,10 12,9.7324 12,9.4 V 6.6 C 12,6.2676 12.268,6 12.6,6 Z"/>
</svg>

<svg style="clip-rule:evenodd;fill-rule:evenodd;stroke-linejoin:round;stroke-miterlimit:2" version="1.1" viewBox="0 0 16 16" xmlns="http://www.w3.org/2000/svg">
 <g transform="matrix(.846154 0 0 .846154 2.46154 1.23077)">
  <path d="m12.6 6h2.8c0.332 0 0.6 0.268 0.6 0.6v2.8c0 0.332-0.268 0.6-0.6 0.6h-2.8c-0.332 0-0.6-0.268-0.6-0.6v-2.8c0-0.332 0.268-0.6 0.6-0.6z" style="fill-rule:nonzero;fill:rgb(68,68,68)"/>
 </g>
 <g transform="matrix(.846154 0 0 .846154 -3.84615 1.23077)">
  <path d="m12.6 6h2.8c0.332 0 0.6 0.268 0.6 0.6v2.8c0 0.332-0.268 0.6-0.6 0.6h-2.8c-0.332 0-0.6-0.268-0.6-0.6v-2.8c0-0.332 0.268-0.6 0.6-0.6z" style="fill-rule:nonzero;fill:rgb(68,68,68)"/>
 </g>
 <g transform="matrix(.846154 0 0 .846154 -10.1538 1.23077)">
  <path d="m12.6 6h2.8c0.332 0 0.6 0.268 0.6 0.6v2.8c0 0.332-0.268 0.6-0.6 0.6h-2.8c-0.332 0-0.6-0.268-0.6-0.6v-2.8c0-0.332 0.268-0.6 0.6-0.6z" style="fill-rule:nonzero;fill:rgb(68,68,68)"/>
 </g>
</svg>
